X:264
T:Atlantic Drive
C:John McSherry
S:Soma - John McSherry
R:jig
M:6/8
L:1/8
K:Amin
cde BGA | zA2 GAE | EDG E2D | EAA GAB | cde BGA | zA2 GAE | EDG EGA | cBG AB/c/d |
cde BGA | zAA GAE | EDG E2A | cB/c/d cdg | edc BGA | zAA GAE | EDG EGA | cBG ABc ||
d2e cAA | d2e cAB | cde g3 | gea gec | d2e cAA | d2e cAB | cde cdB | cAB GED |
d2e cAA | d2e cAB | cde g3 | gea gec | d2e cAA | d2e cAg | ze=f dec | dAc B/c/dg ||
